svg/music_circle_outline.svg

<svg xmlns="http://www.w3.org/2000/svg" viewBox="0 0 24 24"><path d="M16 9h-3v5.5a2.5 2.5 0 0 1-2.5 2.5A2.5 2.5 0 0 1 8 14.5a2.5 2.5 0 0 1 2.5-2.5c.57 0 1.08.19 1.5.5V7h4zm-4-7a10 10 0 0 1 10 10 10 10 0 0 1-10 10A10 10 0 0 1 2 12 10 10 0 0 1 12 2m0 2a8 8 0 0 0-8 8 8 8 0 0 0 8 8 8 8 0 0 0 8-8 8 8 0 0 0-8-8"/></svg>

<?xml version="1.0" encoding="UTF-8"?><!DOCTYPE svg PUBLIC "-//W3C//DTD SVG 1.1//EN" "http://www.w3.org/Graphics/SVG/1.1/DTD/svg11.dtd"><svg xmlns="http://www.w3.org/2000/svg" xmlns:xlink="http://www.w3.org/1999/xlink" version="1.1" id="mdi-music-circle-outline" width="24" height="24" viewBox="0 0 24 24"><path d="M16,9H13V14.5A2.5,2.5 0 0,1 10.5,17A2.5,2.5 0 0,1 8,14.5A2.5,2.5 0 0,1 10.5,12C11.07,12 11.58,12.19 12,12.5V7H16V9M12,2A10,10 0 0,1 22,12A10,10 0 0,1 12,22A10,10 0 0,1 2,12A10,10 0 0,1 12,2M12,4A8,8 0 0,0 4,12A8,8 0 0,0 12,20A8,8 0 0,0 20,12A8,8 0 0,0 12,4Z" /></svg>
